X:4
T:AVANT DEUX DE LANGUEUX ('Les Pattes en haut')
Z: Yves BELOTTEAU
Z: Yves BELOTTEAU
M:4/4
L:1/4
Q:1/4=120
K:G 
|:d d/2d/2de|dcBd|cBAd|cBA2|d d/2d/2de|dcBd|cBA2|d z G2:|
